X:7563
T:Tim and Debbie's Wedding
R:reel
C:Paul S. Cranford
D:The Lighthouse, Cranford Publications
B:The Lighthouse Collection, ISBN 0-9691181-5-5
N:Contacts ...
N:..... Cranford Publications <http://www.cranfordpub.com>
H:Composed my brother Tim and his wife Debbie.
O:England
L:1/8
Q:333
M:C|
K:D
D2 AD FDAD|GFGA BcdA|DE (3(FED) ADFD|EDFD EDB,E|
D2 AD (3(FED) AD|GFGA B2 de|fdec dBAc|dBAF EDB,E:|
D2 af gfed|edfd edBd|AFBF ABdf|e2 fd edBd|
A2 af gfed|edfd edBd|AFBF ABdf|edef d2 dB|
A2 af gfed|e2 fd ed (3(Bcd)|AFBF ABdf|edfd edBd|
A2 af gfed|edfd edBd|gefd edBe|dBAF EDB,E|]
